X:1448
T:Polonesse in G Dur no 1 ur Anders Larssons notbok
R:Slängpolska
D:Spår 4 på [[Grupper/Daniel Pettersson & Maria Jonsson]]s skiva [[http://www.dalakollektivet.se/?page_id=8|Kadrilj]] (efter en uppteckning från [[Platser/Västerbotten]])
B:Anders Larssons notbok
B:http://www.smus.se/earkiv/fmk/browselarge.php?lang=sw&katalogid=M+189&bildnr=00004
B:Jämför [[http://www.smus.se/earkiv/fmk/browselarge.php?lang=sw&katalogid=M+93&bildnr=00013|SMUS - katalog M93 bild 13]] (polonesse 3) efter [[Personer/Andreas Grevelius]]
B:Jämför [[http://www.smus.se/earkiv/fmk/browselarge.php?lang=sw&katalogid=M+170&bildnr=00007|SMUS - katalog M170 bild 7]] nr 34 ur [[Notböcker/Conrad Sandstens notbok]] från Närke.
B:Jämför [[http://www.smus.se/earkiv/fmk/browselarge.php?lang=sw&katalogid=Ma+11&bildnr=00029|SMUS - katalog Ma11 bild 29]] nr 106
B:Jämför [[http://www.smus.se/earkiv/fmk/browselarge.php?lang=sw&katalogid=Ma+6&bildnr=00151|SMUS - katalog Ma6 bild 151]] efter [[Personer/Petter Dufva]]
B:Jämför [[http://www.smus.se/earkiv/fmk/browselarge.php?lang=sw&katalogid=Ma+4&bildnr=00036|SMUS - katalog Ma4 bild 36]] nr 163 och [[http://www.smus.se/earkiv/fmk/browselarge.php?lang=sw&katalogid=Ma+4&bildnr=00032|nr 132]] ur [[Notböcker/Kumlins notsamling]]
B:Jämför [[http://www.smus.se/earkiv/fmk/browselarge.php?lang=sw&katalogid=M+46&bildnr=00017|SMUS - katalog M46 bild 17]] nr 57 ur [[Notböcker/Nils-Johan Nybergs notbok]]
B:Jämför [[http://www.smus.se/earkiv/fmk/browselarge.php?lang=sw&katalogid=MMD+60&bildnr=00019|SMUS - katalog MMD60 bild 19]] nr 73 ur [[Notböcker/Olof Larssons notbok]]
B:Jämför [[http://www.smus.se/earkiv/fmk/browselarge.php?lang=sw&katalogid=M+126b&bildnr=00034|SMUS - katalog M126b bild 34]] nr 204 (kanske ej besläktad men uppvisar likväl vissa likheter)
B:Jämför [[http://www.smus.se/earkiv/fmk/browselarge.php?lang=sw&katalogid=M+182&bildnr=00040|SMUS - katalog M182 bild 40]] (längst ned) ur [[Notböcker/Fredric Lindgrens notbok]]
S:Ur Anders Larssons notbok (1810-1813)
O:Östra Ryd, Östergötland 
M:3/4
L:1/16
N:Se även [[Musik/352|+]] och [[Musik/2592|+]]
K:G
d2g2 g2f2 f2e2|efge d4 c4|B2AG c2BA d2cB|A2GF G2D2B,2G,2|
d2g2 g2f2 f2e2|efge d4 c4|B2AG c2BA d2cB|A2GF G4 G,4:|
|:G2B2 B2AG A4|A2c2 c2BA B4|B2d2 d2cB c4|c2e2 e2dc d4|
d2g2 g2f2 f2e2|efge d4 c4|B2AG c2BA d2cB|A2GF G4 G,4:|
(:musicend:)

(:music:)
